X: 38
T:Charlie Lennon's Mazurka
R:Mazurka
B:Sullivans' Session Tunes Book 2
Z:Added by Alf Warnock
M:3/4
L:1/8
K:G
DG|B3 AGB|d4AB|c3 edc|(3Bcd g2DG|
B3 AGB|d4AB|c3 AFA|G4:|
gf|e2c ece|d2d2AB|c3 edc|Bdg2gf|
e2c ece|d2d2AB|c3 AFA|G4:|

